X:81
T:Brian Boru's March
T:Brian Boru March
T:Tullinahaw
F:http://blackrosetheband.googlepages.com/ABCTUNES.ABC May 2009
M:6/8
L:1/8
R:jig
K:Amin
P:Part A
ed |\
"Am"c3/2B/A Aed | cBA Adc | "G"B3/2A/G Gdc | BAG Ged |\
"Am"c3/2B/A Aed | cBA A3 | "(C)"Acd "G"e2 d |1 "Am"cBA A :|2 "Am"cBA A2G ||
P:Part B
|:\
"C"Acd e2d | e2d e3/2c/A | "G"GAB d2B | d2B d3/2B/G | "Am"Acd e2d |\
e2d e3/2c/A | A3/2c/d "G"e2d |1 "Am"c3/2B/A A2G :|2 "Am"c3/2B/A A2B ||
P:Part C
|:\
"Am"c3/2B/A a2a | c3/2B/A a2a | "G"B3/2A/G g2g | B3/2A/G g2B |\
"Am"c3/2B/A a2a | c3/2B/A a2b | "C"c'ba "G"gfe | "Am"dcB A2B :|
P:Part D
|:\
"C"cde g2e | g2e g3/2e/c | "G"GAB d2B | d2B d3/2B/G |\
"Am"cde g2e | g2e g3/2e/c | Acd "G"e2d |1 "Am"c3/2B/A A2B :|2 "Am"c3/2B/A A2 |]
